modules/open-iconic/icons/basket.svg

<svg xmlns="http://www.w3.org/2000/svg" width="8" height="8" viewBox="0 0 8 8">
  <path d="M3.97 0c-.13.01-.26.08-.34.19l-2.34 2.81h-1.28v1h1v3.66c0 .18.16.34.34.34h5.31c.18 0 .34-.16.34-.34v-3.66h1v-1h-1.28c-.27-.33-2.39-2.86-2.41-2.88-.11-.09-.22-.14-.34-.13zm.03 1.28l1.44 1.72h-2.88l1.44-1.72zm-1.5 3.72c.28 0 .5.22.5.5v1c0 .28-.22.5-.5.5s-.5-.22-.5-.5v-1c0-.28.22-.5.5-.5zm3 0c.28 0 .5.22.5.5v1c0 .28-.22.5-.5.5s-.5-.22-.5-.5v-1c0-.28.22-.5.5-.5z"
  />
</svg>

<svg xmlns="http://www.w3.org/2000/svg" width="8" height="8"><path d="M3.97 0c-.13.01-.26.08-.34.19L1.29 3H.01v1h1v3.66c0 .18.16.34.34.34h5.31c.18 0 .34-.16.34-.34V4h1V3H6.72C6.45 2.67 4.33.14 4.31.12c-.11-.09-.22-.14-.34-.13zM4 1.28L5.44 3H2.56L4 1.28zM2.5 5c.28 0 .5.22.5.5v1c0 .28-.22.5-.5.5S2 6.78 2 6.5v-1c0-.28.22-.5.5-.5zm3 0c.28 0 .5.22.5.5v1c0 .28-.22.5-.5.5S5 6.78 5 6.5v-1c0-.28.22-.5.5-.5z"/></svg>
